X: 2
T: Bill Malley's/O'Malley's (#2)
M: 2/4
L: 1/8
R: polka
K: A Dorian
|: E | 
A2 GE | cd e>d | cA BG | AE- EG |
A2 GE | cd ee/d/ | cA A/A/G | A2 A :|
|: d | 
ea ed | ea e>d | cd ef | g2 a>d | 
ea ed | ea e>d | cA B/A/G | A2- A :|
